;FLAVOR:Marlin
;TIME:731
;Filament used: 0.396446m
;Layer height: 0.15
;MINX:85.4
;MINY:139.4
;MINZ:0.3
;MAXX:214.6
;MAXY:160.6
;MAXZ:7.95
;Generated with Cura_SteamEngine master
M140 S75
M105
M190 S75
M104 S200
M105
M109 S200
M82 ;absolute extrusion mode
; Two Trees Bluer Custom Start G-code
G28 ;Home
G92 E0 ;Reset Extruder
G1 Z4.0 F3000 ;Move Z Axis up
G1 E10 F1500 ;Purge a bit
G1 X10.1 Y20 Z0.2 F5000.0 ;Move to start position
G1 X10.1 Y200.0 Z0.2 F1500.0 E15 ;Draw the first line
G1 X10.4 Y200.0 Z0.2 F5000.0 ;Move to side a little
G1 X10.4 Y20 Z0.2 F1500.0 E20 ;Draw the second line
G92 E0 ;Reset Extruder
G1 Z3.0 X20 Y20 F3000 ;Move Z Axis up
G1 E3 F2700 ;Purge a bit
G92 E0
G92 E0
G1 F3000 E-10
;LAYER_COUNT:52
;LAYER:0
M107
G1 F600 Z1.3
G0 F3600 X89.133 Y140.754 Z1.3
;TYPE:SKIRT
G1 F600 Z0.3
G1 F3000 E0
G1 F1200 X89.825 Y140.343 E0.04517
G1 X90.554 Y140.002 E0.09034
G1 X91.313 Y139.735 E0.1355
G1 X92.095 Y139.544 E0.18068
G1 X92.892 Y139.433 E0.22585
G1 X93.617 Y139.4 E0.26658
G1 X110.519 Y139.401 E1.21523
G1 X111.323 Y139.441 E1.26041
G1 X111.913 Y139.522 E1.29384
G1 X112.205 Y139.573 E1.31048
G1 X113.29 Y139.841 E1.3732
G1 X113.503 Y139.92 E1.38595
G1 X113.707 Y139.85 E1.39806
G1 X114.481 Y139.629 E1.44324
G1 X115.48 Y139.461 E1.5001
G1 X115.653 Y139.443 E1.50986
G1 X116.493 Y139.4 E1.55707
G1 X121.521 Y139.401 E1.83927
G1 X122.324 Y139.441 E1.8844
G1 X122.873 Y139.515 E1.91549
G1 X123.162 Y139.564 E1.93194
G1 X123.948 Y139.738 E1.97712
G1 X124.473 Y139.901 E2.00798
G1 X125.407 Y139.632 E2.06253
G1 X126.425 Y139.461 E2.12047
G1 X126.61 Y139.442 E2.13091
G1 X127.44 Y139.4 E2.17755
G1 X132.521 Y139.401 E2.46273
G1 X133.324 Y139.441 E2.50785
G1 X133.873 Y139.515 E2.53895
G1 X134.162 Y139.564 E2.5554
G1 X134.948 Y139.738 E2.60058
G1 X135.473 Y139.901 E2.63144
G1 X136.22 Y140.2 E2.6766
G1 X136.669 Y140.423 E2.70473
G1 X136.93 Y140.563 E2.72136
G1 X137.49 Y140.9 E2.75804
G1 X138.456 Y140.9 E2.81226
G1 X139.052 Y140.528 E2.85169
G1 X139.083 Y140.511 E2.85368
G1 X139.807 Y140.159 E2.89886
G1 X140.386 Y139.939 E2.93362
G1 X140.685 Y139.838 E2.95134
G1 X141.459 Y139.619 E2.99648
G1 X142.644 Y139.437 E3.06377
G1 X142.797 Y139.425 E3.07239
G1 X143.432 Y139.4 E3.10806
G1 X148.521 Y139.401 E3.39368
G1 X149.324 Y139.441 E3.43881
G1 X149.873 Y139.515 E3.4699
G1 X150.162 Y139.564 E3.48635
G1 X150.948 Y139.738 E3.53154
G1 X151.473 Y139.901 E3.56239
G1 X152.22 Y140.2 E3.60755
G1 X152.669 Y140.423 E3.63569
G1 X152.93 Y140.563 E3.65231
G1 X153.49 Y140.9 E3.68899
G1 X154.456 Y140.9 E3.74321
G1 X155.052 Y140.528 E3.78265
G1 X155.083 Y140.511 E3.78463
G1 X155.807 Y140.159 E3.82981
G1 X156.358 Y139.948 E3.86293
G1 X156.633 Y139.854 E3.87924
G1 X157.407 Y139.632 E3.92443
G1 X158.425 Y139.461 E3.98237
G1 X158.61 Y139.442 E3.99281
G1 X159.44 Y139.4 E4.03945
G1 X164.516 Y139.401 E4.32435
G1 X165.319 Y139.441 E4.36948
G1 X165.863 Y139.514 E4.40028
G1 X166.153 Y139.563 E4.41679
G1 X166.939 Y139.737 E4.46197
G1 X167.556 Y139.932 E4.49829
G1 X168.3 Y140.24 E4.54349
G1 X168.954 Y140.581 E4.58488
G1 X169.479 Y140.9 E4.61936
G1 X175.449 Y140.9 E4.95444
G1 X176.045 Y140.528 E4.99387
G1 X176.076 Y140.511 E4.99586
G1 X176.8 Y140.159 E5.04104
G1 X177.379 Y139.939 E5.0758
G1 X177.678 Y139.838 E5.09352
G1 X178.452 Y139.619 E5.13866
G1 X179.637 Y139.437 E5.20595
G1 X179.79 Y139.425 E5.21457
G1 X180.425 Y139.4 E5.25024
G1 X185.585 Y139.401 E5.53985
G1 X186.388 Y139.441 E5.58497
G1 X186.977 Y139.522 E5.61834
G1 X187.269 Y139.573 E5.63498
G1 X188.354 Y139.841 E5.69771
G1 X189.135 Y140.134 E5.74453
G1 X189.702 Y140.407 E5.77985
G1 X189.96 Y140.544 E5.79624
G1 X190.557 Y140.9 E5.83526
G1 X196.456 Y140.9 E6.16635
G1 X197.052 Y140.528 E6.20578
G1 X197.083 Y140.511 E6.20776
G1 X197.807 Y140.159 E6.25295
G1 X198.386 Y139.939 E6.28771
G1 X198.685 Y139.838 E6.30542
G1 X199.459 Y139.619 E6.35057
G1 X200.644 Y139.437 E6.41786
G1 X200.797 Y139.425 E6.42647
G1 X201.43 Y139.4 E6.46203
G1 X206.383 Y139.4 E6.74002
G1 X207.187 Y139.44 E6.78521
G1 X207.983 Y139.56 E6.83039
G1 X208.763 Y139.757 E6.87554
G1 X209.519 Y140.032 E6.92069
G1 X210.245 Y140.38 E6.96588
G1 X210.932 Y140.798 E7.01102
G1 X211.575 Y141.283 E7.05622
G1 X212.111 Y141.772 E7.09694
G1 X212.228 Y141.889 E7.10623
G1 X212.768 Y142.486 E7.15141
G1 X213.246 Y143.133 E7.19656
G1 X213.657 Y143.825 E7.24173
G1 X213.998 Y144.554 E7.2869
G1 X214.265 Y145.313 E7.33206
G1 X214.456 Y146.095 E7.37724
G1 X214.567 Y146.892 E7.42241
G1 X214.6 Y147.617 E7.46314
G1 X214.6 Y152.383 E7.73064
G1 X214.56 Y153.187 E7.77582
G1 X214.44 Y153.983 E7.821
G1 X214.243 Y154.763 E7.86616
G1 X213.968 Y155.519 E7.91131
G1 X213.62 Y156.245 E7.9565
G1 X213.202 Y156.932 E8.00163
G1 X212.717 Y157.575 E8.04684
G1 X212.228 Y158.111 E8.08756
G1 X212.111 Y158.228 E8.09685
G1 X211.514 Y158.768 E8.14203
G1 X210.867 Y159.246 E8.18718
G1 X210.175 Y159.657 E8.23235
G1 X209.446 Y159.998 E8.27752
G1 X208.687 Y160.265 E8.32268
G1 X207.905 Y160.456 E8.36786
G1 X207.108 Y160.567 E8.41303
G1 X206.381 Y160.6 E8.45387
G1 X201.479 Y160.599 E8.729
G1 X200.676 Y160.559 E8.77413
G1 X200.127 Y160.485 E8.80522
G1 X199.838 Y160.436 E8.82167
G1 X199.052 Y160.262 E8.86686
G1 X198.527 Y160.099 E8.89771
G1 X197.78 Y159.8 E8.94287
G1 X197.331 Y159.577 E8.97101
G1 X197.07 Y159.437 E8.98763
G1 X196.51 Y159.1 E9.02432
G1 X190.48 Y159.1 E9.36276
G1 X189.886 Y159.471 E9.40207
G1 X189.855 Y159.488 E9.40405
G1 X189.131 Y159.84 E9.44923
G1 X188.56 Y160.057 E9.48352
G1 X188.259 Y160.159 E9.50136
G1 X187.485 Y160.38 E9.54653
G1 X186.292 Y160.563 E9.61428
G1 X186.139 Y160.575 E9.62289
G1 X185.504 Y160.6 E9.65856
G1 X180.472 Y160.599 E9.94099
G1 X179.669 Y160.559 E9.98611
G1 X179.085 Y160.479 E10.0192
G1 X178.792 Y160.428 E10.03589
G1 X177.702 Y160.159 E10.0989
G1 X176.921 Y159.866 E10.14572
G1 X176.354 Y159.593 E10.18104
G1 X176.096 Y159.456 E10.19743
G1 X175.499 Y159.1 E10.23645
G1 X169.476 Y159.1 E10.5745
G1 X169.27 Y159.243 E10.58857
G1 X168.752 Y159.54 E10.62209
G1 X168.024 Y159.882 E10.66723
G1 X167.297 Y160.146 E10.71064
G1 X166.523 Y160.368 E10.75583
G1 X165.546 Y160.534 E10.81146
G1 X165.37 Y160.553 E10.82139
G1 X164.499 Y160.6 E10.87035
G1 X159.415 Y160.599 E11.1557
G1 X158.612 Y160.559 E11.20082
G1 X158.023 Y160.478 E11.23419
G1 X157.731 Y160.427 E11.25083
G1 X156.646 Y160.159 E11.31356
G1 X155.865 Y159.866 E11.36037
G1 X155.298 Y159.593 E11.39569
G1 X155.04 Y159.456 E11.41209
G1 X154.443 Y159.1 E11.4511
G1 X153.48 Y159.1 E11.50515
G1 X152.886 Y159.471 E11.54446
G1 X152.855 Y159.488 E11.54644
G1 X152.131 Y159.84 E11.59163
G1 X151.56 Y160.057 E11.62591
G1 X151.259 Y160.159 E11.64375
G1 X150.485 Y160.38 E11.68893
G1 X149.292 Y160.563 E11.75667
G1 X149.139 Y160.575 E11.76528
G1 X148.504 Y160.6 E11.80095
G1 X143.479 Y160.599 E12.08299
G1 X142.676 Y160.559 E12.12811
G1 X142.127 Y160.485 E12.1592
G1 X141.838 Y160.436 E12.17566
G1 X141.052 Y160.262 E12.22084
G1 X140.527 Y160.099 E12.25169
G1 X139.78 Y159.8 E12.29685
G1 X139.331 Y159.577 E12.32499
G1 X139.07 Y159.437 E12.34162
G1 X138.51 Y159.1 E12.3783
G1 X137.544 Y159.1 E12.43252
G1 X136.948 Y159.472 E12.47195
G1 X136.917 Y159.489 E12.47393
G1 X136.193 Y159.841 E12.51912
G1 X135.642 Y160.052 E12.55223
G1 X135.367 Y160.146 E12.56855
G1 X134.593 Y160.368 E12.61374
G1 X133.575 Y160.539 E12.67168
G1 X133.39 Y160.558 E12.68211
G1 X132.56 Y160.6 E12.72876
G1 X127.415 Y160.599 E13.01753
G1 X126.612 Y160.559 E13.06265
G1 X126.023 Y160.478 E13.09602
G1 X125.731 Y160.427 E13.11266
G1 X124.646 Y160.159 E13.17539
G1 X124.492 Y160.102 E13.18461
G1 X124.315 Y160.162 E13.19509
G1 X123.541 Y160.381 E13.24024
G1 X122.356 Y160.563 E13.30753
G1 X122.203 Y160.575 E13.31615
G1 X121.568 Y160.6 E13.35181
G1 X116.476 Y160.599 E13.63761
G1 X115.673 Y160.559 E13.68274
G1 X115.083 Y160.478 E13.71616
G1 X114.797 Y160.428 E13.73246
G1 X113.713 Y160.16 E13.79513
G1 X113.495 Y160.079 E13.80818
G1 X113.251 Y160.162 E13.82265
G1 X112.477 Y160.381 E13.86779
G1 X111.292 Y160.563 E13.93508
G1 X111.139 Y160.575 E13.9437
G1 X110.506 Y160.6 E13.97925
G1 X93.617 Y160.6 E14.92717
G1 X92.813 Y160.56 E14.97236
G1 X92.017 Y160.44 E15.01754
G1 X91.237 Y160.243 E15.06269
G1 X90.481 Y159.968 E15.10784
G1 X89.755 Y159.62 E15.15303
G1 X89.068 Y159.202 E15.19816
G1 X88.425 Y158.717 E15.24337
G1 X87.889 Y158.228 E15.28409
G1 X87.772 Y158.111 E15.29338
G1 X87.232 Y157.514 E15.33856
G1 X86.754 Y156.867 E15.38371
G1 X86.343 Y156.175 E15.42888
G1 X86.002 Y155.446 E15.47405
G1 X85.735 Y154.687 E15.51921
G1 X85.544 Y153.905 E15.56439
G1 X85.433 Y153.108 E15.60956
G1 X85.4 Y152.383 E15.65029
G1 X85.4 Y147.617 E15.91779
G1 X85.44 Y146.813 E15.96297
G1 X85.56 Y146.017 E16.00815
G1 X85.757 Y145.237 E16.05331
G1 X86.032 Y144.481 E16.09846
G1 X86.38 Y143.755 E16.14365
G1 X86.798 Y143.068 E16.18878
G1 X87.283 Y142.425 E16.23399
G1 X87.772 Y141.889 E16.27471
G1 X87.889 Y141.772 E16.28399
G1 X88.486 Y141.232 E16.32918
G1 X88.848 Y140.965 E16.35442
G0 F1080 X89.133 Y140.754
G0 F3600 X89.514 Y141.222
G1 F1200 X90.183 Y140.832 E16.39789
G1 X90.889 Y140.514 E16.44135
G1 X91.624 Y140.27 E16.48481
G1 X92.38 Y140.103 E16.52827
G1 X93.15 Y140.015 E16.57177
G1 X93.617 Y140 E16.59799
G1 X110.519 Y140.001 E17.54664
G1 X111.293 Y140.041 E17.59014
G1 X111.809 Y140.113 E17.61938
G1 X112.101 Y140.164 E17.63602
G1 X113.106 Y140.412 E17.69412
G1 X113.499 Y140.559 E17.71767
G1 X113.901 Y140.418 E17.74158
G1 X114.645 Y140.207 E17.78498
G1 X115.542 Y140.058 E17.83602
G1 X115.715 Y140.04 E17.84578
G1 X116.492 Y140 E17.88945
G1 X121.52 Y140.001 E18.17165
G1 X122.294 Y140.041 E18.21515
G1 X123.062 Y140.156 E18.25874
G1 X123.817 Y140.324 E18.30215
G1 X124.472 Y140.546 E18.34097
G1 X124.827 Y140.422 E18.36207
G1 X125.572 Y140.21 E18.40555
G1 X126.487 Y140.058 E18.45761
G1 X126.672 Y140.039 E18.46804
G1 X127.439 Y140 E18.51115
G1 X132.52 Y140.001 E18.79633
G1 X133.294 Y140.041 E18.83983
G1 X134.062 Y140.156 E18.88341
G1 X134.817 Y140.324 E18.92683
G1 X135.278 Y140.468 E18.95393
G1 X135.996 Y140.758 E18.99739
G1 X136.646 Y141.092 E19.03841
G1 X137.318 Y141.5 E19.08254
G1 X138.657 Y141.5 E19.15769
G1 X139.341 Y141.054 E19.20352
G1 X139.372 Y141.037 E19.2055
G1 X140.069 Y140.7 E19.24896
G1 X140.578 Y140.507 E19.27951
G1 X140.877 Y140.406 E19.29722
G1 X141.622 Y140.197 E19.34065
G1 X142.691 Y140.035 E19.40134
G1 X142.844 Y140.023 E19.40995
G1 X143.431 Y140 E19.44292
G1 X148.52 Y140.001 E19.72855
G1 X149.294 Y140.041 E19.77205
G1 X150.062 Y140.156 E19.81563
G1 X150.817 Y140.324 E19.85905
G1 X151.278 Y140.468 E19.88615
G1 X151.996 Y140.758 E19.92962
G1 X152.646 Y141.092 E19.97063
G1 X153.318 Y141.5 E20.01476
G1 X154.657 Y141.5 E20.08991
G1 X155.341 Y141.054 E20.13574
G1 X155.372 Y141.037 E20.13772
G1 X156.069 Y140.7 E20.18118
G1 X156.552 Y140.516 E20.21019
G1 X156.827 Y140.422 E20.2265
G1 X157.572 Y140.21 E20.26997
G1 X158.487 Y140.058 E20.32203
G1 X158.672 Y140.039 E20.33247
G1 X159.439 Y140 E20.37558
G1 X164.515 Y140.001 E20.66047
G1 X165.289 Y140.041 E20.70397
G1 X166.054 Y140.155 E20.74738
G1 X166.809 Y140.323 E20.7908
G1 X167.355 Y140.497 E20.82296
G1 X168.404 Y140.965 E20.88743
G1 X168.668 Y141.108 E20.90428
G1 X169.309 Y141.5 E20.94645
G1 X175.65 Y141.5 E21.30235
G1 X176.334 Y141.054 E21.34818
G1 X176.365 Y141.037 E21.35017
G1 X177.062 Y140.7 E21.39362
G1 X177.571 Y140.507 E21.42417
G1 X177.87 Y140.406 E21.44188
G1 X178.615 Y140.197 E21.48531
G1 X179.684 Y140.035 E21.546
G1 X179.837 Y140.023 E21.55461
G1 X180.424 Y140 E21.58758
G1 X185.584 Y140.001 E21.8772
G1 X186.358 Y140.041 E21.9207
G1 X186.873 Y140.113 E21.94988
G1 X187.165 Y140.164 E21.96652
G1 X188.17 Y140.412 E22.02462
G1 X188.198 Y140.421 E22.02627
G1 X188.922 Y140.695 E22.06972
G1 X189.42 Y140.937 E22.10079
G1 X189.678 Y141.074 E22.11719
G1 X190.343 Y141.472 E22.16069
G1 X190.381 Y141.5 E22.16334
G1 X196.657 Y141.5 E22.51559
G1 X197.341 Y141.054 E22.56142
G1 X197.372 Y141.037 E22.5634
G1 X198.069 Y140.7 E22.60685
G1 X198.578 Y140.507 E22.63741
G1 X198.877 Y140.406 E22.65512
G1 X199.622 Y140.197 E22.69855
G1 X200.691 Y140.035 E22.75923
G1 X200.844 Y140.023 E22.76785
G1 X201.43 Y140 E22.80076
G1 X206.383 Y140 E23.07876
G1 X207.156 Y140.04 E23.1222
G1 X207.921 Y140.159 E23.16565
G1 X208.67 Y140.357 E23.20914
G1 X209.394 Y140.631 E23.25258
G1 X210.087 Y140.978 E23.29608
G1 X210.739 Y141.395 E23.33952
G1 X211.345 Y141.877 E23.38298
G1 X211.803 Y142.314 E23.41851
G1 X212.322 Y142.889 E23.46199
G1 X212.778 Y143.514 E23.50541
G1 X213.168 Y144.183 E23.54887
G1 X213.486 Y144.889 E23.59233
G1 X213.73 Y145.624 E23.6358
G1 X213.897 Y146.38 E23.67925
G1 X213.985 Y147.15 E23.72275
G1 X214 Y147.617 E23.74898
G1 X214 Y152.383 E24.01648
G1 X213.96 Y153.156 E24.05992
G1 X213.841 Y153.921 E24.10337
G1 X213.643 Y154.67 E24.14686
G1 X213.369 Y155.394 E24.1903
G1 X213.022 Y156.087 E24.2338
G1 X212.605 Y156.739 E24.27724
G1 X212.123 Y157.345 E24.3207
G1 X211.686 Y157.803 E24.35623
G1 X211.111 Y158.322 E24.39971
G1 X210.486 Y158.778 E24.44313
G1 X209.817 Y159.168 E24.48659
G1 X209.111 Y159.486 E24.53005
G1 X208.376 Y159.73 E24.57352
G1 X207.62 Y159.897 E24.61697
G1 X206.85 Y159.985 E24.66047
G1 X206.381 Y160 E24.68681
G1 X201.479 Y159.999 E24.96194
G1 X200.706 Y159.959 E25.00539
G1 X199.938 Y159.844 E25.04897
G1 X199.183 Y159.676 E25.09238
G1 X198.722 Y159.532 E25.11949
G1 X198.004 Y159.242 E25.16295
G1 X197.354 Y158.908 E25.20397
G1 X196.682 Y158.5 E25.24809
G1 X190.28 Y158.5 E25.60741
G1 X189.597 Y158.945 E25.65317
G1 X189.566 Y158.962 E25.65515
G1 X188.869 Y159.299 E25.6986
G1 X188.367 Y159.489 E25.72873
G1 X188.066 Y159.591 E25.74657
G1 X187.321 Y159.802 E25.79003
G1 X186.245 Y159.965 E25.85111
G1 X186.092 Y159.977 E25.85972
G1 X185.505 Y160 E25.89269
G1 X180.473 Y159.999 E26.17512
G1 X179.699 Y159.959 E26.21862
G1 X179.188 Y159.888 E26.24758
G1 X178.895 Y159.837 E26.26427
G1 X177.886 Y159.588 E26.3226
G1 X177.858 Y159.579 E26.32425
G1 X177.134 Y159.305 E26.3677
G1 X176.636 Y159.063 E26.39878
G1 X176.378 Y158.926 E26.41517
G1 X175.713 Y158.528 E26.45867
G1 X175.674 Y158.5 E26.46136
G1 X169.288 Y158.5 E26.81979
G1 X168.503 Y158.993 E26.87182
G1 X168.471 Y159.01 E26.87385
G1 X167.769 Y159.338 E26.91734
G1 X167.103 Y159.578 E26.95707
G1 X166.358 Y159.79 E27.00055
G1 X165.482 Y159.938 E27.05041
G1 X165.306 Y159.957 E27.06035
G1 X164.5 Y160 E27.10565
G1 X159.416 Y159.999 E27.391
G1 X158.642 Y159.959 E27.4345
G1 X158.127 Y159.887 E27.46368
G1 X157.835 Y159.836 E27.48032
G1 X156.83 Y159.588 E27.53842
G1 X156.802 Y159.579 E27.54007
G1 X156.078 Y159.305 E27.58352
G1 X155.58 Y159.063 E27.61459
G1 X155.322 Y158.926 E27.63099
G1 X154.657 Y158.528 E27.67449
G1 X154.619 Y158.5 E27.67714
G1 X153.28 Y158.5 E27.75229
G1 X152.597 Y158.945 E27.79804
G1 X152.566 Y158.962 E27.80003
G1 X151.869 Y159.299 E27.84348
G1 X151.367 Y159.489 E27.87361
G1 X151.066 Y159.591 E27.89144
G1 X150.321 Y159.802 E27.9349
G1 X149.245 Y159.965 E27.99598
G1 X149.092 Y159.977 E28.0046
G1 X148.505 Y160 E28.03757
G1 X143.48 Y159.999 E28.3196
G1 X142.706 Y159.959 E28.3631
G1 X141.938 Y159.844 E28.40669
G1 X141.183 Y159.676 E28.4501
G1 X140.722 Y159.532 E28.47721
G1 X140.004 Y159.242 E28.52067
G1 X139.354 Y158.908 E28.56169
G1 X138.682 Y158.5 E28.60581
G1 X137.343 Y158.5 E28.68097
G1 X136.659 Y158.946 E28.7268
G1 X136.628 Y158.963 E28.72878
G1 X135.931 Y159.3 E28.77223
G1 X135.448 Y159.484 E28.80124
G1 X135.173 Y159.578 E28.81755
G1 X134.428 Y159.79 E28.86103
G1 X133.513 Y159.942 E28.91309
G1 X133.328 Y159.961 E28.92353
G1 X132.561 Y160 E28.96663
G1 X127.416 Y159.999 E29.2554
G1 X126.642 Y159.959 E29.2989
G1 X126.127 Y159.887 E29.32809
G1 X125.835 Y159.836 E29.34472
G1 X124.83 Y159.588 E29.40282
G1 X124.498 Y159.464 E29.42272
G1 X124.123 Y159.594 E29.44499
G1 X123.378 Y159.803 E29.48842
G1 X122.309 Y159.965 E29.5491
G1 X122.156 Y159.977 E29.55772
G1 X121.569 Y160 E29.59069
G1 X116.477 Y159.999 E29.87649
G1 X115.703 Y159.959 E29.91999
G1 X115.186 Y159.887 E29.94928
G1 X114.9 Y159.837 E29.96558
G1 X113.897 Y159.589 E30.02357
G1 X113.5 Y159.44 E30.04737
G1 X113.059 Y159.594 E30.07359
G1 X112.314 Y159.803 E30.11701
G1 X111.245 Y159.965 E30.1777
G1 X111.092 Y159.977 E30.18631
G1 X110.506 Y160 E30.21923
