;FLAVOR:Marlin
;TIME:1196
;Filament used: 0.551063m
;Layer height: 0.2
;MINX:89.87
;MINY:99.37
;MINZ:0.2
;MAXX:145.13
;MAXY:135.63
;MAXZ:31.4
;Generated with Cura_SteamEngine 4.3.0
;Edited by 'fix_travels' to normalise movement between towers
;Retraction Distance Test G-code permuted by PNT/awk script
;    with 6 distances from 0-10mmm retraction
;    in 2mm increments at 20mm/s
;    Sun Dec  8 23:03:51 GMT 2019
M140 S90
M105
M190 S90
M104 S250
M105
M109 S200
M82 ;absolute extrusion mode
M201 X500.00 Y500.00 Z100.00 E5000.00 ;Setup machine max acceleration
M203 X500.00 Y500.00 Z10.00 E50.00 ;Setup machine max feedrate
M204 P500.00 R1000.00 T500.00 ;Setup Print/Retract/Travel acceleration
M205 X8.00 Y8.00 Z0.40 E5.00 ;Setup Jerk
M220 S100 ;Reset Feedrate
M221 S100 ;Reset Flowrate

G28 ;Home
;G29 ; auto bed level

G92 E0 ;Reset Extruder
G1 Z2.0 F3000 ;Move Z Axis up
G1 X10.1 Y20 Z0.28 F5000.0 ;Move to start position
G1 X10.1 Y200.0 Z0.28 F1500.0 E15 ;Draw the first line
G1 X10.4 Y200.0 Z0.28 F5000.0 ;Move to side a little
G1 X10.4 Y20 Z0.28 F1500.0 E30 ;Draw the second line
G92 E0 ;Reset Extruder
G1 Z2.0 F3000 ;Move Z Axis up
G92 E0
G92 E0
G1 F1200 E0
;LAYER_COUNT:157
;LAYER:0
M107
G0 F9000 X89.87 Y111.704 Z0.2
;TYPE:SKIRT
G1 F1200 E0
G1 F1800 X89.871 Y111.537 E0.00583
G1 X89.88 Y110.956 E0.02613
G1 X89.891 Y110.624 E0.03773
G1 X89.902 Y110.389 E0.04594
G1 X89.985 Y109.471 E0.07813
G1 X90.186 Y108.394 E0.11639
G1 X90.247 Y108.141 E0.12548
G1 X90.502 Y107.255 E0.15768
G1 X90.832 Y106.395 E0.18985
G1 X91.236 Y105.566 E0.22206
G1 X91.497 Y105.113 E0.24031
G1 X91.624 Y104.904 E0.24885
G1 X92.136 Y104.137 E0.28106
G1 X92.478 Y103.696 E0.30055
G1 X92.599 Y103.548 E0.30723
G1 X93.213 Y102.86 E0.33943
G1 X93.885 Y102.228 E0.37165
G1 X94.571 Y101.683 E0.40224
G1 X94.744 Y101.557 E0.40972
G1 X95.512 Y101.047 E0.44191
G1 X96.697 Y100.431 E0.48856
G1 X96.925 Y100.33 E0.49726
G1 X97.783 Y99.993 E0.52946
G1 X98.667 Y99.733 E0.56164
G1 X99.571 Y99.549 E0.59385
G1 X100.053 Y99.484 E0.61084
G1 X100.403 Y99.445 E0.62314
G1 X101.439 Y99.381 E0.65939
G1 X102.042 Y99.373 E0.68045
G1 X102.182 Y99.372 E0.68534
G1 X132.789 Y99.37 E1.75423
G1 X132.934 Y99.371 E1.75929
G1 X133.523 Y99.379 E1.77987
G1 X133.887 Y99.39 E1.79258
G1 X134.117 Y99.401 E1.80063
G1 X135.035 Y99.485 E1.83282
G1 X136.094 Y99.684 E1.87045
G1 X136.356 Y99.747 E1.87986
G1 X137.242 Y100.001 E1.91205
G1 X138.103 Y100.331 E1.94425
G1 X138.932 Y100.734 E1.97644
G1 X139.965 Y101.372 E2.01884
G1 X140.318 Y101.619 E2.03389
G1 X141.05 Y102.18 E2.0661
G1 X141.73 Y102.802 E2.09828
G1 X142.354 Y103.481 E2.13049
G1 X142.817 Y104.071 E2.15668
G1 X142.943 Y104.244 E2.16415
G1 X143.453 Y105.012 E2.19635
G1 X144.079 Y106.219 E2.24383
G1 X144.182 Y106.453 E2.25276
G1 X144.517 Y107.313 E2.28499
G1 X144.775 Y108.198 E2.31719
G1 X144.957 Y109.102 E2.34939
G1 X145.021 Y109.593 E2.36668
G1 X145.058 Y109.935 E2.3787
G1 X145.119 Y110.934 E2.41365
G1 X145.127 Y111.525 E2.43429
G1 X145.128 Y111.667 E2.43925
G1 X145.13 Y123.246 E2.84363
G1 X145.129 Y123.387 E2.84855
G1 X145.121 Y123.999 E2.86992
G1 X145.11 Y124.362 E2.88261
G1 X145.098 Y124.616 E2.89149
G1 X145.015 Y125.534 E2.92368
G1 X144.819 Y126.584 E2.96098
G1 X144.76 Y126.831 E2.96985
G1 X144.507 Y127.717 E3.00203
G1 X144.178 Y128.579 E3.03425
G1 X143.776 Y129.408 E3.06643
G1 X143.536 Y129.83 E3.08338
G1 X143.407 Y130.045 E3.09214
G1 X142.899 Y130.814 E3.12432
G1 X142.522 Y131.304 E3.14591
G1 X142.401 Y131.452 E3.15259
G1 X141.787 Y132.14 E3.18479
G1 X141.115 Y132.772 E3.21701
G1 X140.429 Y133.317 E3.24761
G1 X140.256 Y133.443 E3.25508
G1 X139.488 Y133.953 E3.28728
G1 X138.285 Y134.577 E3.33461
G1 X138.049 Y134.681 E3.34361
G1 X137.19 Y135.016 E3.37581
G1 X136.305 Y135.275 E3.40802
G1 X135.401 Y135.457 E3.44022
G1 X134.875 Y135.526 E3.45875
G1 X134.533 Y135.562 E3.47076
G1 X133.561 Y135.619 E3.50476
G1 X132.958 Y135.627 E3.52582
G1 X132.818 Y135.628 E3.53071
G1 X102.211 Y135.63 E4.5996
G1 X102.065 Y135.629 E4.6047
G1 X101.477 Y135.621 E4.62524
G1 X101.116 Y135.61 E4.63785
G1 X100.885 Y135.599 E4.64593
G1 X99.967 Y135.515 E4.67812
G1 X98.906 Y135.316 E4.71582
G1 X98.644 Y135.253 E4.72523
G1 X97.758 Y134.999 E4.75742
G1 X96.897 Y134.669 E4.78962
G1 X96.068 Y134.266 E4.82181
G1 X95.563 Y133.974 E4.84219
G1 X95.358 Y133.848 E4.85059
G1 X94.594 Y133.332 E4.88279
G1 X94.196 Y133.022 E4.9004
G1 X94.048 Y132.901 E4.90708
G1 X93.36 Y132.287 E4.93928
G1 X92.728 Y131.615 E4.9715
G1 X92.162 Y130.9 E5.00335
G1 X92.034 Y130.723 E5.01098
G1 X91.527 Y129.953 E5.04317
G1 X90.925 Y128.791 E5.08888
G1 X90.826 Y128.567 E5.09743
G1 X90.49 Y127.708 E5.12964
G1 X90.23 Y126.824 E5.16182
G1 X90.048 Y125.92 E5.19402
G1 X89.983 Y125.434 E5.21115
G1 X89.944 Y125.08 E5.22359
G1 X89.881 Y124.054 E5.25948
G1 X89.873 Y123.436 E5.28107
G1 X89.872 Y123.3 E5.28582
G1 X89.87 Y111.704 E5.69079
G0 F9000 X90.29 Y111.704
G1 F1800 X90.291 Y111.544 E5.69637
G1 X90.3 Y110.963 E5.71667
G1 X90.31 Y110.644 E5.72781
G1 X90.321 Y110.409 E5.73603
G1 X90.403 Y109.509 E5.76759
G1 X90.594 Y108.493 E5.80369
G1 X90.655 Y108.24 E5.81278
G1 X90.906 Y107.372 E5.84434
G1 X91.232 Y106.529 E5.8759
G1 X91.856 Y105.331 E5.92308
G1 X91.983 Y105.122 E5.93162
G1 X92.486 Y104.371 E5.96318
G1 X92.804 Y103.962 E5.98128
G1 X92.925 Y103.814 E5.98795
G1 X93.527 Y103.14 E6.01951
G1 X94.186 Y102.522 E6.05106
G1 X94.818 Y102.023 E6.07919
G1 X94.991 Y101.897 E6.08666
G1 X95.744 Y101.398 E6.11821
G1 X96.867 Y100.815 E6.1624
G1 X97.095 Y100.714 E6.1711
G1 X97.936 Y100.385 E6.20264
G1 X98.804 Y100.132 E6.23422
G1 X100.099 Y99.902 E6.28015
G1 X100.449 Y99.863 E6.29245
G1 X101.445 Y99.801 E6.3273
G1 X102.048 Y99.793 E6.34836
G1 X102.182 Y99.792 E6.35304
G1 X132.789 Y99.79 E7.42193
G1 X132.929 Y99.791 E7.42682
G1 X133.518 Y99.799 E7.44739
G1 X133.867 Y99.81 E7.45959
G1 X134.097 Y99.821 E7.46763
G1 X134.996 Y99.904 E7.49916
G1 X135.996 Y100.092 E7.53469
G1 X136.258 Y100.155 E7.5441
G1 X137.126 Y100.405 E7.57565
G1 X137.969 Y100.731 E7.60721
G1 X138.78 Y101.129 E7.63876
G1 X139.724 Y101.717 E7.6776
G1 X140.077 Y101.964 E7.69265
G1 X140.794 Y102.514 E7.72421
G1 X141.459 Y103.125 E7.75575
G1 X142.068 Y103.793 E7.78731
G1 X142.477 Y104.318 E7.81056
G1 X142.603 Y104.491 E7.81803
G1 X143.102 Y105.244 E7.84958
G1 X143.695 Y106.389 E7.89461
G1 X143.798 Y106.623 E7.90354
G1 X144.125 Y107.465 E7.93508
G1 X144.376 Y108.333 E7.96664
G1 X144.604 Y109.638 E8.0129
G1 X144.641 Y109.98 E8.02492
G1 X144.699 Y110.94 E8.0585
G1 X144.707 Y111.531 E8.07915
G1 X144.708 Y111.667 E8.0839
G1 X144.71 Y123.246 E8.48827
G1 X144.709 Y123.381 E8.49299
G1 X144.701 Y123.993 E8.51436
G1 X144.691 Y124.342 E8.52655
G1 X144.679 Y124.596 E8.53543
G1 X144.596 Y125.496 E8.567
G1 X144.411 Y126.486 E8.60217
G1 X144.352 Y126.733 E8.61104
G1 X144.103 Y127.602 E8.64261
G1 X143.779 Y128.445 E8.67415
G1 X143.176 Y129.614 E8.72008
G1 X143.047 Y129.829 E8.72884
G1 X142.548 Y130.582 E8.76039
G1 X142.196 Y131.038 E8.78051
G1 X142.075 Y131.186 E8.78718
G1 X141.473 Y131.86 E8.81874
G1 X140.814 Y132.478 E8.85029
G1 X140.182 Y132.977 E8.87841
G1 X140.009 Y133.103 E8.88589
G1 X139.256 Y133.602 E8.91744
G1 X138.115 Y134.193 E8.96231
G1 X137.879 Y134.297 E8.97132
G1 X137.037 Y134.624 E9.00286
G1 X136.169 Y134.876 E9.03443
G1 X135.283 Y135.05 E9.06596
G1 X134.831 Y135.108 E9.08188
G1 X134.489 Y135.144 E9.09389
G1 X133.555 Y135.199 E9.12656
G1 X132.952 Y135.207 E9.14762
G1 X132.818 Y135.208 E9.1523
G1 X102.211 Y135.21 E10.22119
G1 X102.071 Y135.209 E10.22608
G1 X101.483 Y135.201 E10.24662
G1 X101.136 Y135.19 E10.25874
G1 X100.905 Y135.179 E10.26682
G1 X100.006 Y135.097 E10.29835
G1 X99.004 Y134.908 E10.33396
G1 X98.742 Y134.845 E10.34337
G1 X97.874 Y134.595 E10.37491
G1 X97.031 Y134.269 E10.40648
G1 X96.22 Y133.871 E10.43803
G1 X95.783 Y133.616 E10.4557
G1 X95.578 Y133.49 E10.4641
G1 X94.83 Y132.984 E10.49564
G1 X94.462 Y132.696 E10.51196
G1 X94.314 Y132.575 E10.51863
G1 X93.64 Y131.973 E10.55019
G1 X93.022 Y131.314 E10.58175
G1 X92.503 Y130.654 E10.61107
G1 X92.375 Y130.477 E10.6187
G1 X91.878 Y129.722 E10.65026
G1 X91.309 Y128.621 E10.69354
G1 X91.21 Y128.397 E10.7021
G1 X90.882 Y127.556 E10.73362
G1 X90.629 Y126.688 E10.7652
G1 X90.4 Y125.388 E10.8113
G1 X90.361 Y125.034 E10.82373
G1 X90.301 Y124.048 E10.85823
G1 X90.293 Y123.43 E10.87982
G1 X90.292 Y123.3 E10.88436
G1 X90.29 Y111.704 E11.28932
G1 F1200 E11.28932
;MESH:3-8mm_at_20mmps.stl
G0 F9000 X101.133 Y110.962
;TYPE:WALL-INNER
G1 F1200 E11.28932
G1 F1800 X101.157 Y110.866 E11.29278
G1 X101.177 Y110.823 E11.29444
G1 X101.201 Y110.786 E11.29598
G1 X101.235 Y110.745 E11.29784
G1 X101.272 Y110.712 E11.29957
G1 X101.356 Y110.66 E11.30302
G1 X101.385 Y110.651 E11.30408
G1 X101.445 Y110.638 E11.30622
G1 X101.512 Y110.632 E11.30857
G1 X133.538 Y110.633 E12.42702
G1 X133.634 Y110.656 E12.43047
G1 X133.713 Y110.701 E12.43364
G1 X133.755 Y110.735 E12.43553
G1 X133.788 Y110.772 E12.43726
G1 X133.822 Y110.822 E12.43937
G1 X133.849 Y110.881 E12.44164
G1 X133.862 Y110.945 E12.44392
G1 X133.868 Y111.012 E12.44627
G1 X133.867 Y124.038 E12.90118
G1 X133.844 Y124.131 E12.90452
G1 X133.802 Y124.21 E12.90765
G1 X133.765 Y124.255 E12.90968
G1 X133.728 Y124.288 E12.91141
G1 X133.646 Y124.339 E12.91479
G1 X133.615 Y124.349 E12.91592
G1 X133.555 Y124.362 E12.91807
G1 X133.488 Y124.368 E12.92042
G1 X101.462 Y124.367 E14.03887
G1 X101.366 Y124.344 E14.04231
G1 X101.287 Y124.299 E14.04549
G1 X101.245 Y124.265 E14.04738
G1 X101.212 Y124.228 E14.04911
G1 X101.161 Y124.146 E14.05248
G1 X101.149 Y124.109 E14.05384
G1 X101.138 Y124.055 E14.05576
G1 X101.132 Y123.987 E14.05815
G1 X101.133 Y110.962 E14.51302
G0 F9000 X100.71 Y111.013
;TYPE:WALL-OUTER
G1 F1800 X100.716 Y110.91 E14.51662
G1 X100.735 Y110.807 E14.52028
G1 X100.766 Y110.709 E14.52387
G1 X100.81 Y110.617 E14.52743
G1 X100.864 Y110.534 E14.53089
G1 X100.935 Y110.45 E14.53473
G1 X101.008 Y110.384 E14.53817
G1 X101.107 Y110.315 E14.54238
G1 X101.198 Y110.27 E14.54593
G1 X101.28 Y110.243 E14.54894
G1 X101.382 Y110.221 E14.55259
G1 X101.489 Y110.212 E14.55634
G1 X133.487 Y110.21 E15.67381
G1 X133.59 Y110.216 E15.67741
G1 X133.693 Y110.235 E15.68107
G1 X133.791 Y110.266 E15.68466
G1 X133.882 Y110.31 E15.68819
G1 X133.966 Y110.364 E15.69168
G1 X134.05 Y110.435 E15.69552
G1 X134.116 Y110.508 E15.69895
G1 X134.185 Y110.607 E15.70317
G1 X134.23 Y110.697 E15.70668
G1 X134.257 Y110.78 E15.70973
G1 X134.279 Y110.882 E15.71337
G1 X134.288 Y110.989 E15.71712
G1 X134.29 Y123.987 E16.17106
G1 X134.284 Y124.09 E16.17466
G1 X134.265 Y124.193 E16.17832
G1 X134.234 Y124.29 E16.18187
G1 X134.19 Y124.382 E16.18543
G1 X134.136 Y124.466 E16.18892
G1 X134.065 Y124.55 E16.19276
G1 X133.992 Y124.616 E16.1962
G1 X133.893 Y124.685 E16.20041
G1 X133.802 Y124.73 E16.20396
G1 X133.72 Y124.757 E16.20697
G1 X133.618 Y124.779 E16.21062
G1 X133.511 Y124.788 E16.21437
G1 X101.513 Y124.79 E17.33184
G1 X101.41 Y124.784 E17.33544
G1 X101.307 Y124.765 E17.3391
G1 X101.209 Y124.734 E17.34269
G1 X101.118 Y124.69 E17.34622
G1 X101.034 Y124.636 E17.34971
G1 X100.95 Y124.565 E17.35355
G1 X100.884 Y124.492 E17.35698
G1 X100.815 Y124.393 E17.3612
G1 X100.77 Y124.302 E17.36474
G1 X100.743 Y124.22 E17.36776
G1 X100.721 Y124.118 E17.3714
G1 X100.712 Y124.011 E17.37515
G1 X100.71 Y111.013 E17.82908
G0 F9000 X101.171 Y111.026
G0 X101.543 Y111.042
;TYPE:SKIN
G1 F1800 X133.458 Y111.043 E18.94366
G1 X133.457 Y123.958 E19.39469
G1 X101.542 Y123.957 E20.50926
G1 X101.543 Y111.042 E20.96029
G1 F1200 E20.96029
G0 F9000 X101.919 Y123.578
G1 F1200 E20.96029
G1 F1800 X102.195 Y123.578 E20.96993
G1 X101.919 Y123.302 E20.98356
G1 X101.919 Y122.708 E21.00431
G1 X102.789 Y123.578 E21.04728
G1 X103.383 Y123.578 E21.06802
G1 X101.919 Y122.114 E21.14033
G1 X101.919 Y121.52 E21.16107
G1 X103.977 Y123.578 E21.26271
G1 X104.571 Y123.578 E21.28346
G1 X101.919 Y120.926 E21.41444
G1 X101.919 Y120.332 E21.43518
G1 X105.165 Y123.578 E21.5955
G1 X105.759 Y123.578 E21.61624
G1 X101.919 Y119.738 E21.80589
G1 X101.919 Y119.144 E21.82664
G1 X106.353 Y123.578 E22.04563
G1 X106.947 Y123.578 E22.06637
G1 X101.919 Y118.55 E22.3147
G1 X101.919 Y117.956 E22.33544
G1 X107.541 Y123.578 E22.61311
G1 X108.135 Y123.578 E22.63385
G1 X101.92 Y117.363 E22.9408
G1 X101.92 Y116.769 E22.96155
G1 X108.728 Y123.578 E23.29781
G1 X109.322 Y123.578 E23.31855
G1 X101.92 Y116.175 E23.68415
G1 X101.92 Y115.581 E23.7049
G1 X109.916 Y123.578 E24.09984
G1 X110.51 Y123.578 E24.12058
G1 X101.92 Y114.987 E24.54486
G1 X101.92 Y114.393 E24.5656
G1 X111.104 Y123.578 E25.01921
G1 X111.698 Y123.578 E25.03996
G1 X101.92 Y113.799 E25.5229
G1 X101.92 Y113.205 E25.54365
G1 X112.292 Y123.578 E26.05593
G1 X112.887 Y123.578 E26.07671
G1 X101.92 Y112.611 E26.61836
G1 X101.92 Y112.017 E26.6391
G1 X113.481 Y123.578 E27.21009
G1 X114.075 Y123.578 E27.23083
G1 X101.92 Y111.423 E27.83115
G1 X101.92 Y111.418 E27.83133
G1 X102.509 Y111.419 E27.8519
G1 X114.669 Y123.578 E28.45244
G1 X115.263 Y123.578 E28.47318
G1 X103.103 Y111.419 E29.07373
G1 X103.697 Y111.419 E29.09447
G1 X115.857 Y123.578 E29.69501
G1 X116.451 Y123.578 E29.71576
G1 X104.291 Y111.419 E30.3163
G1 X104.885 Y111.419 E30.33705
G1 X117.045 Y123.578 E30.93759
G1 X117.639 Y123.578 E30.95833
G1 X105.479 Y111.419 E31.55888
G1 X106.073 Y111.419 E31.57962
G1 X118.233 Y123.578 E32.18016
G1 X118.827 Y123.578 E32.20091
G1 X106.667 Y111.419 E32.80145
G1 X107.261 Y111.419 E32.82219
G1 X119.421 Y123.578 E33.42274
G1 X120.015 Y123.578 E33.44348
G1 X107.855 Y111.419 E34.04402
G1 X108.449 Y111.419 E34.06477
G1 X120.609 Y123.578 E34.66531
G1 X121.203 Y123.578 E34.68606
G1 X109.043 Y111.419 E35.2866
G1 X109.637 Y111.419 E35.30734
G1 X121.797 Y123.578 E35.90789
G1 X122.39 Y123.578 E35.9286
G1 X110.231 Y111.419 E36.52911
G1 X110.825 Y111.419 E36.54986
G1 X122.985 Y123.579 E37.15043
G1 X123.579 Y123.579 E37.17117
G1 X111.419 Y111.419 E37.77174
G1 X112.013 Y111.419 E37.79248
G1 X124.173 Y123.579 E38.39305
G1 X124.767 Y123.579 E38.41379
G1 X112.608 Y111.42 E39.01431
G1 X113.202 Y111.42 E39.03506
G1 X125.361 Y123.579 E39.63557
G1 X125.955 Y123.579 E39.65632
G1 X113.796 Y111.42 E40.25684
G1 X114.39 Y111.42 E40.27758
G1 X126.549 Y123.579 E40.8781
G1 X127.143 Y123.579 E40.89884
G1 X114.984 Y111.42 E41.49936
G1 X115.578 Y111.42 E41.52011
G1 X127.737 Y123.579 E42.12062
G1 X128.331 Y123.579 E42.14137
G1 X116.171 Y111.42 E42.74191
G1 X116.765 Y111.42 E42.76266
G1 X128.925 Y123.579 E43.3632
G1 X129.519 Y123.579 E43.38394
G1 X117.359 Y111.42 E43.98449
G1 X117.953 Y111.42 E44.00523
G1 X130.113 Y123.579 E44.60577
G1 X130.707 Y123.579 E44.62652
G1 X118.547 Y111.42 E45.22706
G1 X119.141 Y111.42 E45.2478
G1 X131.301 Y123.579 E45.84835
G1 X131.895 Y123.579 E45.86909
G1 X119.735 Y111.42 E46.46963
G1 X120.329 Y111.42 E46.49038
G1 X132.489 Y123.579 E47.09092
G1 X133.078 Y123.58 E47.11149
G1 X133.078 Y123.575 E47.11167
G1 X120.923 Y111.42 E47.71199
G1 X121.517 Y111.42 E47.73273
G1 X133.078 Y122.981 E48.30372
G1 X133.078 Y122.387 E48.32446
G1 X122.111 Y111.42 E48.86611
G1 X122.706 Y111.42 E48.88689
G1 X133.078 Y121.793 E49.39917
G1 X133.078 Y121.199 E49.41992
G1 X123.3 Y111.42 E49.90286
G1 X123.894 Y111.42 E49.92361
G1 X133.078 Y120.605 E50.37722
G1 X133.078 Y120.011 E50.39796
G1 X124.488 Y111.42 E50.82224
G1 X125.082 Y111.42 E50.84298
G1 X133.078 Y119.417 E51.23792
G1 X133.078 Y118.823 E51.25866
G1 X125.676 Y111.42 E51.62426
G1 X126.27 Y111.42 E51.64501
G1 X133.078 Y118.229 E51.98127
G1 X133.078 Y117.635 E52.00202
G1 X126.864 Y111.42 E52.30894
G1 X127.458 Y111.42 E52.32969
G1 X133.079 Y117.042 E52.60733
G1 X133.079 Y116.448 E52.62807
G1 X128.052 Y111.42 E52.87637
