;FLAVOR:Marlin
;TIME:1333
;Filament used: 0.594137m
;Layer height: 0.2
;MINX:89.87
;MINY:99.37
;MINZ:0.2
;MAXX:145.13
;MAXY:135.63
;MAXZ:36.4
;Generated with Cura_SteamEngine 4.3.0
;Edited by 'fix_travels' to normalise movement between towers
;Retraction Speed Test G-code created by PNT/awk script V1.2
;    for 5mm retraction at 15 20 25 30 35 40 50 (mm/s)
;    Mon Jan 27 13:21:53 GMT 2020
M140 S50
M105
M190 S50
M104 S200
M105
M109 S200
M82 ;absolute extrusion mode
M201 X500.00 Y500.00 Z100.00 E5000.00 ;Setup machine max acceleration
M203 X500.00 Y500.00 Z10.00 E50.00 ;Setup machine max feedrate
M204 P500.00 R1000.00 T500.00 ;Setup Print/Retract/Travel acceleration
M205 X8.00 Y8.00 Z0.40 E5.00 ;Setup Jerk
M220 S100 ;Reset Feedrate
M221 S100 ;Reset Flowrate

G28 ;Home
;G29 ; auto bed level

G92 E0 ;Reset Extruder
G1 Z2.0 F3000 ;Move Z Axis up
G1 X10.1 Y20 Z0.28 F5000.0 ;Move to start position
G1 X10.1 Y200.0 Z0.28 F1500.0 E15 ;Draw the first line
G1 X10.4 Y200.0 Z0.28 F5000.0 ;Move to side a little
G1 X10.4 Y20 Z0.28 F1500.0 E30 ;Draw the second line
G92 E0 ;Reset Extruder
G1 Z2.0 F3000 ;Move Z Axis up
G92 E0
G92 E0
G1 F1500 E-5 ; retract adjusted to 5mm at (default) 30mm/s
;LAYER_COUNT:182
;Section:0
;LAYER:0
M107
G0 F9000 X89.87 Y122.932 Z0.2
;TYPE:SKIRT
G1 F1500 E0 ; reprime 5mm at (default) 30mm/s 
G1 F1800 X89.875 Y111.351 E0.40444
G1 X89.888 Y110.828 E0.42272
G1 X89.914 Y110.305 E0.441
G1 X90 Y109.387 E0.4732
G1 X90.252 Y108.125 E0.51815
G1 X90.306 Y107.92 E0.52555
G1 X90.579 Y107.04 E0.55773
G1 X90.927 Y106.186 E0.58993
G1 X91.17 Y105.694 E0.6091
G1 X91.268 Y105.507 E0.61647
G1 X91.731 Y104.709 E0.64869
G1 X92.261 Y103.955 E0.68087
G1 X92.708 Y103.412 E0.70544
G1 X92.864 Y103.235 E0.71368
G1 X93.503 Y102.571 E0.74586
G1 X94.197 Y101.964 E0.77806
G1 X94.58 Y101.672 E0.79488
G1 X94.742 Y101.554 E0.80188
G1 X95.51 Y101.044 E0.83407
G1 X96.32 Y100.602 E0.8663
G1 X96.93 Y100.327 E0.88967
G1 X97.176 Y100.225 E0.89897
G1 X98.042 Y99.909 E0.93116
G1 X98.932 Y99.669 E0.96335
G1 X99.84 Y99.508 E0.99556
G1 X100.887 Y99.42 E1.03225
G1 X102.184 Y99.376 E1.07757
G1 X102.546 Y99.37 E1.09022
G1 X133.147 Y99.375 E2.1589
G1 X133.675 Y99.388 E2.17734
G1 X134.196 Y99.414 E2.19556
G1 X135.114 Y99.5 E2.22776
G1 X136.383 Y99.754 E2.27296
G1 X136.591 Y99.809 E2.28047
G1 X137.472 Y100.083 E2.31269
G1 X138.325 Y100.433 E2.34489
G1 X138.791 Y100.662 E2.36303
G1 X138.975 Y100.758 E2.37027
G1 X139.773 Y101.219 E2.40246
G1 X140.528 Y101.748 E2.43465
G1 X141.09 Y102.21 E2.46006
G1 X141.268 Y102.367 E2.46835
G1 X141.932 Y103.006 E2.50053
G1 X142.538 Y103.701 E2.53273
G1 X142.828 Y104.08 E2.5494
G1 X142.946 Y104.242 E2.5564
G1 X143.456 Y105.01 E2.5886
G1 X143.898 Y105.82 E2.62082
G1 X144.173 Y106.43 E2.64419
G1 X144.275 Y106.676 E2.65349
G1 X144.591 Y107.542 E2.68568
G1 X144.831 Y108.432 E2.71788
G1 X144.992 Y109.34 E2.75008
G1 X145.08 Y110.387 E2.78677
G1 X145.124 Y111.684 E2.83209
G1 X145.13 Y112.049 E2.84484
G1 X145.125 Y123.645 E3.24981
G1 X145.112 Y124.165 E3.26798
G1 X145.086 Y124.691 E3.28637
G1 X145.001 Y125.609 E3.31857
G1 X144.752 Y126.861 E3.36315
G1 X144.698 Y127.067 E3.37058
G1 X144.425 Y127.948 E3.40279
G1 X144.078 Y128.802 E3.43499
G1 X143.849 Y129.27 E3.45318
G1 X143.754 Y129.453 E3.46038
G1 X143.295 Y130.252 E3.49256
G1 X142.767 Y131.008 E3.52477
G1 X142.306 Y131.571 E3.55018
G1 X142.147 Y131.752 E3.55859
G1 X141.509 Y132.417 E3.59078
G1 X140.816 Y133.025 E3.62297
G1 X140.42 Y133.328 E3.64039
G1 X140.258 Y133.446 E3.64739
G1 X139.49 Y133.956 E3.67958
G1 X138.68 Y134.398 E3.71181
G1 X138.07 Y134.673 E3.73517
G1 X137.824 Y134.775 E3.74448
G1 X136.958 Y135.091 E3.77667
G1 X136.068 Y135.331 E3.80886
G1 X135.16 Y135.492 E3.84107
G1 X134.113 Y135.58 E3.87776
G1 X132.816 Y135.624 E3.92308
G1 X132.456 Y135.63 E3.93565
G1 X102.207 Y135.63 E4.99204
G1 X102.056 Y135.629 E4.99732
G1 X101.705 Y135.624 E5.00958
G1 X101.328 Y135.612 E5.02275
G1 X100.805 Y135.586 E5.04104
G1 X99.887 Y135.5 E5.07324
G1 X98.603 Y135.243 E5.11897
G1 X98.396 Y135.188 E5.12645
G1 X97.516 Y134.912 E5.15866
G1 X96.664 Y134.562 E5.19082
G1 X96.209 Y134.338 E5.20854
G1 X96.025 Y134.242 E5.21578
G1 X95.227 Y133.781 E5.24797
G1 X94.472 Y133.252 E5.28016
G1 X93.905 Y132.785 E5.30582
G1 X93.725 Y132.626 E5.3142
G1 X93.061 Y131.986 E5.34641
G1 X92.455 Y131.291 E5.37861
G1 X91.97 Y130.634 E5.40713
G1 X91.83 Y130.428 E5.41583
G1 X91.346 Y129.644 E5.44801
G1 X90.931 Y128.82 E5.48023
G1 X90.716 Y128.308 E5.49962
G1 X90.637 Y128.105 E5.50723
G1 X90.34 Y127.232 E5.53943
G1 X90.12 Y126.337 E5.57162
G1 X89.978 Y125.426 E5.60382
G1 X89.919 Y124.598 E5.63281
G1 X89.876 Y123.285 E5.67869
G1 X89.87 Y122.932 E5.69102
G0 F9000 X90.29 Y122.933
G1 F1800 X90.295 Y111.352 E6.09546
G1 X90.308 Y110.849 E6.11303
G1 X90.334 Y110.326 E6.13132
G1 X90.418 Y109.426 E6.16289
G1 X90.658 Y108.232 E6.20542
G1 X90.712 Y108.027 E6.21282
G1 X90.98 Y107.165 E6.24435
G1 X91.324 Y106.329 E6.27592
G1 X91.542 Y105.889 E6.29307
G1 X91.64 Y105.702 E6.30044
G1 X92.094 Y104.921 E6.33199
G1 X92.616 Y104.183 E6.36356
G1 X93.023 Y103.69 E6.38588
G1 X93.179 Y103.513 E6.39412
G1 X93.806 Y102.862 E6.42569
G1 X94.828 Y102.011 E6.47213
G1 X94.99 Y101.893 E6.47913
G1 X95.743 Y101.394 E6.51068
G1 X96.537 Y100.963 E6.54223
G1 X97.09 Y100.715 E6.5634
G1 X97.336 Y100.613 E6.5727
G1 X98.186 Y100.304 E6.60428
G1 X99.059 Y100.071 E6.63584
G1 X99.949 Y99.917 E6.66738
G1 X100.901 Y99.84 E6.70074
G1 X102.198 Y99.796 E6.74606
G1 X102.546 Y99.79 E6.75821
G1 X133.147 Y99.795 E7.8269
G1 X133.654 Y99.808 E7.84461
G1 X134.175 Y99.834 E7.86283
G1 X135.074 Y99.919 E7.89436
G1 X136.276 Y100.16 E7.93717
G1 X136.484 Y100.215 E7.94469
G1 X137.347 Y100.485 E7.97627
G1 X138.182 Y100.829 E8.00781
G1 X138.597 Y101.034 E8.02397
G1 X138.781 Y101.13 E8.03122
G1 X139.563 Y101.583 E8.06278
G1 X140.301 Y102.103 E8.09431
G1 X140.812 Y102.525 E8.11745
G1 X140.99 Y102.682 E8.12574
G1 X141.64 Y103.309 E8.15728
G1 X142.489 Y104.328 E8.2036
G1 X142.607 Y104.49 E8.2106
G1 X143.106 Y105.243 E8.24215
G1 X143.537 Y106.037 E8.2737
G1 X143.785 Y106.59 E8.29486
G1 X143.887 Y106.836 E8.30416
G1 X144.196 Y107.686 E8.33575
G1 X144.429 Y108.559 E8.36731
G1 X144.583 Y109.449 E8.39885
G1 X144.66 Y110.401 E8.4322
G1 X144.704 Y111.698 E8.47753
G1 X144.71 Y112.048 E8.48975
G1 X144.705 Y123.644 E8.89472
G1 X144.693 Y124.144 E8.91219
G1 X144.667 Y124.67 E8.93058
G1 X144.582 Y125.57 E8.96215
G1 X144.345 Y126.755 E9.00435
G1 X144.291 Y126.961 E9.01179
G1 X144.024 Y127.824 E9.04334
G1 X143.681 Y128.66 E9.07489
G1 X143.477 Y129.076 E9.09108
G1 X143.382 Y129.259 E9.09828
G1 X142.93 Y130.042 E9.12985
G1 X142.412 Y130.782 E9.1614
G1 X141.991 Y131.293 E9.18452
G1 X141.832 Y131.474 E9.19293
G1 X141.206 Y132.126 E9.2245
G1 X140.172 Y132.989 E9.27153
G1 X140.01 Y133.107 E9.27853
G1 X139.257 Y133.606 E9.31008
G1 X138.463 Y134.037 E9.34163
G1 X137.91 Y134.285 E9.3628
G1 X137.664 Y134.387 E9.3721
G1 X136.814 Y134.696 E9.40368
G1 X135.941 Y134.929 E9.43524
G1 X135.051 Y135.083 E9.46678
G1 X134.099 Y135.16 E9.50014
G1 X132.802 Y135.204 E9.54546
G1 X132.456 Y135.21 E9.55754
G1 X102.207 Y135.21 E10.61393
G1 X102.062 Y135.209 E10.619
G1 X101.711 Y135.204 E10.63126
G1 X101.349 Y135.192 E10.6439
G1 X100.826 Y135.166 E10.66219
G1 X99.926 Y135.082 E10.69376
G1 X98.711 Y134.837 E10.73705
G1 X98.504 Y134.782 E10.74452
G1 X97.642 Y134.511 E10.77608
G1 X96.403 Y133.966 E10.82335
G1 X96.219 Y133.87 E10.8306
G1 X95.437 Y133.417 E10.86216
G1 X94.699 Y132.897 E10.89369
G1 X94.183 Y132.47 E10.91708
G1 X94.003 Y132.311 E10.92547
G1 X93.353 Y131.684 E10.95701
G1 X92.761 Y131.001 E10.98857
G1 X92.318 Y130.398 E11.0147
G1 X92.178 Y130.192 E11.0234
G1 X91.703 Y129.423 E11.05497
G1 X91.299 Y128.615 E11.08652
G1 X91.107 Y128.156 E11.10389
G1 X91.028 Y127.953 E11.1115
G1 X90.738 Y127.097 E11.14306
G1 X90.525 Y126.219 E11.17461
G1 X90.39 Y125.326 E11.20616
G1 X90.338 Y124.584 E11.23213
G1 X90.295 Y123.271 E11.27801
G1 X90.29 Y122.933 E11.28982
G1 F1500 E6.28982 ; retract adjusted to 5mm at (default) 30mm/s
;MESH:speeds-5mm.stl
G0 F9000 X101.13 Y123.983
;TYPE:WALL-INNER
G1 F1500 E11.28982 ; reprime 5mm at (default) 30mm/s 
G1 F1800 X101.135 Y110.951 E11.74493
G1 X101.147 Y110.897 E11.74687
G1 X101.165 Y110.846 E11.74875
G1 X101.19 Y110.801 E11.75055
G1 X101.226 Y110.753 E11.75265
G1 X101.254 Y110.725 E11.75403
G1 X101.3 Y110.691 E11.75603
G1 X101.346 Y110.665 E11.75787
G1 X101.397 Y110.647 E11.75976
G1 X101.452 Y110.635 E11.76173
G1 X101.517 Y110.63 E11.76401
G1 X133.548 Y110.635 E12.88263
G1 X133.654 Y110.665 E12.88648
G1 X133.7 Y110.691 E12.88832
G1 X133.747 Y110.725 E12.89035
G1 X133.775 Y110.754 E12.89175
G1 X133.81 Y110.8 E12.89377
G1 X133.835 Y110.846 E12.8956
G1 X133.853 Y110.897 E12.89749
G1 X133.865 Y110.951 E12.89942
G1 X133.87 Y111.017 E12.90173
G1 X133.865 Y124.049 E13.35685
G1 X133.853 Y124.103 E13.35878
G1 X133.835 Y124.154 E13.36067
G1 X133.81 Y124.199 E13.36247
G1 X133.774 Y124.247 E13.36457
G1 X133.746 Y124.275 E13.36595
G1 X133.7 Y124.309 E13.36795
G1 X133.654 Y124.335 E13.36979
G1 X133.603 Y124.353 E13.37168
G1 X133.548 Y124.365 E13.37365
G1 X133.483 Y124.37 E13.37592
G1 X101.452 Y124.365 E14.49455
G1 X101.397 Y124.353 E14.49651
G1 X101.346 Y124.335 E14.4984
G1 X101.3 Y124.309 E14.50025
G1 X101.254 Y124.275 E14.50224
G1 X101.225 Y124.246 E14.50368
G1 X101.191 Y124.2 E14.50567
G1 X101.165 Y124.154 E14.50752
G1 X101.147 Y124.103 E14.50941
G1 X101.135 Y124.049 E14.51134
G1 X101.13 Y123.983 E14.51365
G0 F9000 X100.71 Y124
;TYPE:WALL-OUTER
G1 F1800 X100.71 Y111 E14.96765
G1 X100.718 Y110.891 E14.97147
G1 X100.743 Y110.779 E14.97548
G1 X100.782 Y110.671 E14.97949
G1 X100.836 Y110.573 E14.98339
G1 X100.906 Y110.479 E14.98749
G1 X100.979 Y110.406 E14.99109
G1 X101.073 Y110.336 E14.99519
G1 X101.171 Y110.282 E14.99909
G1 X101.279 Y110.243 E15.0031
G1 X101.391 Y110.218 E15.00711
G1 X101.501 Y110.21 E15.01096
G1 X133.499 Y110.21 E16.12843
G1 X133.609 Y110.218 E16.13229
G1 X133.721 Y110.243 E16.13629
G1 X133.829 Y110.282 E16.1403
G1 X133.927 Y110.336 E16.14421
G1 X134.021 Y110.406 E16.1483
G1 X134.094 Y110.479 E16.15191
G1 X134.164 Y110.573 E16.156
G1 X134.218 Y110.671 E16.15991
G1 X134.257 Y110.779 E16.16392
G1 X134.282 Y110.891 E16.16793
G1 X134.29 Y111 E16.17174
G1 X134.29 Y124 E16.62575
G1 X134.282 Y124.109 E16.62956
G1 X134.257 Y124.221 E16.63357
G1 X134.218 Y124.329 E16.63758
G1 X134.164 Y124.427 E16.64149
G1 X134.094 Y124.521 E16.64558
G1 X134.021 Y124.594 E16.64919
G1 X133.927 Y124.664 E16.65328
G1 X133.829 Y124.718 E16.65719
G1 X133.721 Y124.757 E16.6612
G1 X133.609 Y124.782 E16.6652
G1 X133.499 Y124.79 E16.66906
G1 X101.501 Y124.79 E17.78653
G1 X101.391 Y124.782 E17.79038
G1 X101.279 Y124.757 E17.79439
G1 X101.171 Y124.718 E17.7984
G1 X101.073 Y124.664 E17.8023
G1 X100.979 Y124.594 E17.8064
G1 X100.906 Y124.521 E17.81
G1 X100.836 Y124.427 E17.8141
G1 X100.782 Y124.329 E17.818
G1 X100.743 Y124.221 E17.82201
G1 X100.718 Y124.109 E17.82602
G1 X100.71 Y124 E17.82984
G0 F9000 X101.171 Y123.984
G0 X101.54 Y123.955
;TYPE:SKIN
G1 F1800 X101.545 Y111.04 E18.28087
G1 X133.46 Y111.045 E19.39544
G1 X133.455 Y123.96 E19.84647
G1 X101.54 Y123.955 E20.96105
G0 F9000 X101.918 Y123.576
G1 F1800 X102.193 Y123.576 E20.97065
G1 X101.918 Y123.301 E20.98423
G1 X101.918 Y122.707 E21.00498
G1 X102.787 Y123.576 E21.0479
G1 X103.381 Y123.576 E21.06864
G1 X101.918 Y122.113 E21.1409
G1 X101.918 Y121.519 E21.16164
G1 X103.975 Y123.576 E21.26323
G1 X104.569 Y123.576 E21.28398
G1 X101.918 Y120.925 E21.41491
G1 X101.918 Y120.331 E21.43565
G1 X105.163 Y123.576 E21.59592
G1 X105.757 Y123.576 E21.61666
G1 X101.919 Y119.738 E21.80622
G1 X101.919 Y119.144 E21.82696
G1 X106.352 Y123.577 E22.0459
G1 X106.946 Y123.577 E22.06665
G1 X101.919 Y118.55 E22.31492
G1 X101.92 Y117.957 E22.33563
G1 X107.54 Y123.577 E22.6132
G1 X108.134 Y123.577 E22.63394
G1 X101.92 Y117.363 E22.94084
G1 X101.92 Y116.769 E22.96159
G1 X108.728 Y123.577 E23.29783
G1 X109.322 Y123.577 E23.31857
G1 X101.92 Y116.176 E23.68412
G1 X101.92 Y115.582 E23.70487
G1 X109.916 Y123.578 E24.09978
G1 X110.51 Y123.578 E24.12052
G1 X101.92 Y114.988 E24.54477
G1 X101.921 Y114.395 E24.56548
G1 X111.104 Y123.578 E25.01902
G1 X111.698 Y123.578 E25.03976
G1 X101.921 Y113.801 E25.52264
G1 X101.921 Y113.207 E25.54338
G1 X112.292 Y123.578 E26.05559
G1 X112.886 Y123.578 E26.07634
G1 X101.922 Y112.613 E26.61786
G1 X101.922 Y112.019 E26.63861
G1 X113.48 Y123.578 E27.20947
G1 X114.075 Y123.578 E27.23024
G1 X101.922 Y111.425 E27.83047
G1 X101.923 Y111.416 E27.83078
G1 X102.507 Y111.417 E27.85118
G1 X114.669 Y123.578 E28.45182
G1 X115.263 Y123.578 E28.47256
G1 X103.101 Y111.417 E29.07321
G1 X103.695 Y111.417 E29.09395
G1 X115.857 Y123.578 E29.69459
G1 X116.451 Y123.578 E29.71534
G1 X104.289 Y111.417 E30.31598
G1 X104.883 Y111.417 E30.33672
G1 X117.045 Y123.578 E30.93736
G1 X117.639 Y123.579 E30.95811
G1 X105.478 Y111.418 E31.55873
G1 X106.072 Y111.418 E31.57947
G1 X118.233 Y123.579 E32.18009
G1 X118.827 Y123.579 E32.20083
G1 X106.666 Y111.418 E32.80145
G1 X107.26 Y111.418 E32.82219
G1 X119.421 Y123.579 E33.42281
G1 X120.015 Y123.579 E33.44355
G1 X107.854 Y111.418 E34.04417
G1 X108.448 Y111.418 E34.06491
G1 X120.609 Y123.579 E34.66553
G1 X121.203 Y123.579 E34.68628
G1 X109.042 Y111.418 E35.28689
G1 X109.636 Y111.418 E35.30764
G1 X121.798 Y123.58 E35.9083
G1 X122.392 Y123.58 E35.92905
G1 X110.23 Y111.418 E36.52971
G1 X110.824 Y111.418 E36.55046
G1 X122.986 Y123.58 E37.15113
G1 X123.58 Y123.58 E37.17187
G1 X111.418 Y111.418 E37.77254
G1 X112.012 Y111.418 E37.79328
G1 X124.174 Y123.58 E38.39395
G1 X124.768 Y123.58 E38.41469
G1 X112.607 Y111.419 E39.01531
G1 X113.201 Y111.419 E39.03605
G1 X125.362 Y123.581 E39.63669
G1 X125.956 Y123.581 E39.65744
G1 X113.795 Y111.419 E40.25808
G1 X114.389 Y111.419 E40.27882
G1 X126.55 Y123.581 E40.87947
G1 X127.144 Y123.581 E40.90021
G1 X114.983 Y111.419 E41.50085
G1 X115.577 Y111.419 E41.5216
G1 X127.738 Y123.581 E42.12224
G1 X128.332 Y123.581 E42.14298
G1 X116.171 Y111.42 E42.7436
G1 X116.765 Y111.42 E42.76434
G1 X128.926 Y123.581 E43.36496
G1 X129.521 Y123.581 E43.38574
G1 X117.359 Y111.42 E43.98638
G1 X117.953 Y111.42 E44.00713
G1 X130.115 Y123.581 E44.60777
G1 X130.709 Y123.581 E44.62851
G1 X118.547 Y111.42 E45.22915
G1 X119.141 Y111.42 E45.2499
G1 X131.303 Y123.581 E45.85054
G1 X131.897 Y123.581 E45.87128
G1 X119.736 Y111.42 E46.4719
G1 X120.33 Y111.42 E46.49264
G1 X132.491 Y123.581 E47.09326
G1 X133.076 Y123.582 E47.11369
G1 X133.076 Y123.573 E47.11401
G1 X120.924 Y111.42 E47.7142
G1 X121.518 Y111.42 E47.73495
G1 X133.076 Y122.979 E48.30581
G1 X133.076 Y122.385 E48.32655
G1 X122.112 Y111.42 E48.86808
G1 X122.707 Y111.421 E48.88885
G1 X133.077 Y121.792 E49.40104
G1 X133.077 Y121.198 E49.42179
G1 X123.301 Y111.421 E49.90464
G1 X123.895 Y111.421 E49.92538
G1 X133.077 Y120.604 E50.37889
G1 X133.078 Y120.01 E50.39964
G1 X124.488 Y111.421 E50.82386
G1 X125.082 Y111.421 E50.84461
G1 X133.078 Y119.416 E51.23949
G1 X133.078 Y118.823 E51.2602
G1 X125.676 Y111.421 E51.62578
G1 X126.271 Y111.422 E51.64656
G1 X133.078 Y118.229 E51.98275
G1 X133.078 Y117.635 E52.00349
G1 X126.865 Y111.422 E52.31034
G1 X127.459 Y111.422 E52.33109
G1 X133.079 Y117.042 E52.60865
G1 X133.079 Y116.448 E52.6294
G1 X128.053 Y111.422 E52.87763
G1 X128.647 Y111.422 E52.89837
G1 X133.08 Y115.855 E53.11731
G1 X133.08 Y115.261 E53.13806
G1 X129.241 Y111.422 E53.32766
G1 X129.836 Y111.423 E53.34844
G1 X133.08 Y114.667 E53.50866
G1 X133.081 Y114.074 E53.52936
G1 X130.43 Y111.423 E53.66029
G1 X131.024 Y111.423 E53.68104
G1 X133.081 Y113.48 E53.78263
